src/distro-icons/nixos.svg

<svg width="512" height="512" fill="none" xmlns="http://www.w3.org/2000/svg">
<circle cx="256" cy="256" r="256" fill="#fff"/>
<path fill-rule="evenodd" clip-rule="evenodd" d="M201.217 172.567 76.491 388.626l-29.12-49.375 33.614-57.864-66.758-.176L0 256.539l14.528-25.234 95.023.3 34.151-58.889 57.515-.149ZM210.786 345.281l249.43.013-28.189 49.912-66.907-.185 33.227 57.915-14.248 24.66-29.113.033-47.251-82.462-68.062-.138-28.887-49.748ZM355.963 250.609 231.258 34.538l57.31-.538 33.293 58.05 33.531-57.74 28.475.011 14.584 25.203-47.771 82.162 33.911 59.027-28.628 49.896Z" fill="#7EBAE4"/>
<path fill-rule="evenodd" clip-rule="evenodd" d="m301.052 166.351-249.43-.012 28.189-49.913 66.907.186-33.227-57.916 14.248-24.66 29.113-.032 47.251 82.462 68.062.138 28.887 49.747ZM310.783 339.566l124.726-216.06 29.12 49.375-33.614 57.865 66.757.175L512 255.593l-14.529 25.235-95.022-.301-34.151 58.889-57.515.15Z" fill="#5277C3"/>
<path fill-rule="evenodd" clip-rule="evenodd" d="m156.354 261.43 124.705 216.072-57.31.537-33.293-58.05-33.531 57.74-28.475-.011-14.584-25.202 47.771-82.162-33.911-59.027 28.628-49.897Z" fill="url(#a)"/>
<defs>
<linearGradient id="a" x1="126.706" y1="262.842" x2="216.445" y2="421.429" gradientUnits="userSpaceOnUse">
<stop stop-color="#415E9A"/>
<stop offset=".232" stop-color="#4A6BAF"/>
<stop offset="1" stop-color="#5277C3"/>
</linearGradient>
</defs>
</svg>

<svg width="512" height="512" viewBox="0 0 512 512" fill="none" xmlns="http://www.w3.org/2000/svg">
<circle cx="256" cy="256" r="256" fill="white"/>
<path fill-rule="evenodd" clip-rule="evenodd" d="M156.206 261.569L280.911 477.641L223.601 478.178L190.308 420.128L156.777 477.868L128.302 477.857L113.718 452.655L161.489 370.492L127.578 311.466L156.206 261.569Z" fill="#5277C3"/>
<path fill-rule="evenodd" clip-rule="evenodd" d="M201.217 172.567L76.4913 388.626L47.3709 339.251L80.9853 281.387L14.2275 281.211L0 256.539L14.5285 231.305L109.551 231.605L143.702 172.716L201.217 172.567Z" fill="#7EBAE4"/>
<path fill-rule="evenodd" clip-rule="evenodd" d="M210.786 345.281L460.216 345.294L432.027 395.206L365.12 395.021L398.347 452.936L384.099 477.596L354.986 477.629L307.735 395.167L239.673 395.029L210.786 345.281Z" fill="#7EBAE4"/>
<path fill-rule="evenodd" clip-rule="evenodd" d="M355.963 250.609L231.258 34.5377L288.568 34L321.861 92.0504L355.392 34.3102L383.867 34.3214L398.451 59.5239L350.68 141.686L384.591 200.713L355.963 250.609Z" fill="#7EBAE4"/>
<path fill-rule="evenodd" clip-rule="evenodd" d="M156.206 261.569L280.911 477.641L223.601 478.178L190.308 420.128L156.777 477.868L128.302 477.857L113.718 452.655L161.489 370.492L127.578 311.466L156.206 261.569Z" fill="#5277C3"/>
<path fill-rule="evenodd" clip-rule="evenodd" d="M301.052 166.351L51.6216 166.339L79.8108 116.426L146.718 116.612L113.491 58.6961L127.739 34.0358L156.852 34.0036L204.103 116.466L272.165 116.604L301.052 166.351Z" fill="#5277C3"/>
<path fill-rule="evenodd" clip-rule="evenodd" d="M310.783 339.566L435.509 123.506L464.629 172.881L431.015 230.746L497.772 230.921L512 255.593L497.471 280.828L402.449 280.527L368.298 339.416L310.783 339.566Z" fill="#5277C3"/>
<path fill-rule="evenodd" clip-rule="evenodd" d="M156.354 261.43L281.059 477.502L223.749 478.039L190.456 419.989L156.925 477.729L128.45 477.718L113.866 452.516L161.637 370.354L127.726 311.327L156.354 261.43Z" fill="url(#paint0_linear_2:234)"/>
<path fill-rule="evenodd" clip-rule="evenodd" d="M156.354 261.43L281.059 477.502L223.749 478.039L190.456 419.989L156.925 477.729L128.45 477.718L113.866 452.516L161.637 370.354L127.726 311.327L156.354 261.43Z" fill="url(#paint1_linear_2:234)"/>
<circle cx="434.5" cy="434.5" r="77.5" fill="white"/>
<path d="M425.077 383.035L389.695 383.035C388.859 383.035 388.182 383.713 388.182 384.549C388.182 385.385 388.859 386.063 389.695 386.063L422.466 386.063C422.7 385.715 422.942 385.369 423.192 385.024L424.3 383.494L425.077 383.035Z" fill="#E91F63"/>
<path d="M414.021 402.627C413.758 403.326 413.481 404.062 413.201 404.832L375.77 404.832C374.934 404.832 374.256 404.154 374.256 403.318C374.256 402.482 374.934 401.805 375.77 401.805L414.365 401.805L414.256 402.001L414.021 402.627Z" fill="#E91F63" fill-opacity="0.7"/>
<path d="M409.981 420.271L369.715 420.271C368.879 420.271 368.201 420.949 368.201 421.785C368.201 422.621 368.879 423.299 369.715 423.299L409.566 423.299C409.574 423.255 409.583 423.211 409.591 423.168L409.6 423.123C409.788 422.168 409.911 421.53 409.988 421.029C409.983 420.775 409.98 420.523 409.981 420.271Z" fill="#E91F63" fill-opacity="0.3"/>
<path d="M411.238 439.041L368.201 439.041C367.365 439.041 366.688 439.719 366.688 440.555C366.688 441.391 367.365 442.068 368.201 442.068L413.542 442.068C413.244 441.681 412.941 441.299 412.632 440.922C412.101 440.306 411.639 439.677 411.238 439.041Z" fill="#E91F63"/>
<path d="M422.95 457.508L372.742 457.508C371.906 457.508 371.229 458.186 371.229 459.021C371.229 459.857 371.906 460.535 372.742 460.535L424.569 460.535C424.27 459.958 423.969 459.383 423.665 458.809C423.424 458.372 423.186 457.938 422.95 457.508Z" fill="#E91F63" fill-opacity="0.6"/>
<path d="M431.847 476.277L384.852 476.277C384.016 476.277 383.338 476.955 383.338 477.791C383.338 478.627 384.016 479.305 384.852 479.305L433.073 479.305C432.672 478.292 432.263 477.283 431.847 476.277Z" fill="#E91F63"/>
<path d="M448.208 374.214C447.614 376.864 443.434 373.631 442.641 376.63C437.96 373.333 442.354 380.198 441.734 380.632L441.697 380.625L441.325 380.512C441.094 380.375 440.764 380.15 440.296 379.717C436.146 381.868 434.892 387.786 430.546 390.353C427.094 395.117 425.379 400.679 422.521 405.826C420.618 410.883 418.819 415.96 419.089 421.445C418.641 425.778 416.273 431.325 419.566 435.056C424.389 440.907 427.989 447.831 431.655 454.491C437.386 465.283 442.074 476.628 445.996 488.138C446.898 485.638 446.326 493.584 447.95 494.447C448.115 490.45 448.554 484.132 449.121 479.267C449.667 466.363 445.729 453.84 445.85 440.978C445.881 440.441 445.903 439.887 445.935 439.34L446.242 437.784L446.052 437.746C446.498 431.468 447.533 424.774 452.918 420.909C458.369 417.22 465.37 417.399 471.458 415.288C472.815 414.809 474.207 414.478 475.59 414.321C475.601 414.32 475.617 414.33 475.628 414.329C479.652 413.905 483.694 414.739 487.508 416.156C487.565 416.177 487.634 416.21 487.69 416.231C488.037 416.362 488.413 416.499 488.755 416.638C491.586 417.462 497.164 419.735 498.603 417.946C495.295 413.77 489.507 412.883 484.894 410.585C484.155 410.294 483.237 409.955 482.306 409.681L477.761 407.68L476.642 407.144L476.635 407.182L460.262 400.521C460.04 400.222 459.796 399.912 459.56 399.673L475.693 404.985L475.708 404.909C476.266 405.154 476.824 405.374 477.399 405.558L477.392 405.596L488.664 410.065C490.534 411.217 492.576 412.2 494.568 412.731C497.805 413.873 501.069 419.684 502.103 420.14C502.599 414.793 497.834 411.417 493.794 409.029C489.21 405.562 481.615 404.167 482.107 397.177C481.987 396.66 481.87 396.144 481.702 395.632L480.249 392.617L480.333 392.594C478.261 388.877 474.922 385.819 471.059 384.136C467.332 381.961 463.103 379.701 458.942 378.313C456.674 382.262 456.563 374.358 452.666 375.932C449.567 375.694 449.823 376.576 447.951 374.214L448.208 374.214ZM467.532 390.906C468.634 391.093 469.845 391.541 471.024 392.225C474.151 394.046 475.857 396.929 474.846 398.663C473.835 400.396 470.466 400.314 467.34 398.485C464.214 396.657 462.497 393.83 463.51 392.084C464.142 390.997 465.698 390.595 467.532 390.906Z" fill="#E91F63"/>
<path d="M466.591 399.038C469.725 401.043 473.309 401.039 474.595 399.029C475.881 397.019 474.383 393.764 471.248 391.759C468.114 389.754 464.531 389.758 463.245 391.768C461.959 393.778 463.457 397.033 466.591 399.038Z" fill="black"/>
<path fill-rule="evenodd" clip-rule="evenodd" d="M471.284 399.026C472.422 399.025 473.049 398.636 473.32 398.214C473.59 397.791 473.68 397.058 473.204 396.025C472.737 395.01 471.793 393.904 470.433 393.034C469.073 392.164 467.673 391.77 466.555 391.771C465.418 391.773 464.79 392.161 464.52 392.584C464.25 393.006 464.16 393.739 464.636 394.772C465.103 395.787 466.047 396.893 467.407 397.763C468.767 398.633 470.167 399.027 471.284 399.026ZM474.595 399.029C473.309 401.039 469.725 401.043 466.591 399.038C463.457 397.033 461.959 393.778 463.245 391.768C464.531 389.758 468.114 389.754 471.248 391.759C474.383 393.764 475.881 397.019 474.595 399.029Z" fill="white"/>
<defs>
<linearGradient id="paint0_linear_2:234" x1="117.266" y1="268.216" x2="208.626" y2="426.189" gradientUnits="userSpaceOnUse">
<stop stop-color="#699AD7"/>
<stop offset="0.243452" stop-color="#7EB1DD"/>
<stop offset="1" stop-color="#7EBAE4"/>
</linearGradient>
<linearGradient id="paint1_linear_2:234" x1="126.706" y1="262.842" x2="216.445" y2="421.429" gradientUnits="userSpaceOnUse">
<stop stop-color="#415E9A"/>
<stop offset="0.231686" stop-color="#4A6BAF"/>
<stop offset="1" stop-color="#5277C3"/>
</linearGradient>
</defs>
</svg>
